icons/tokens/0x514910771AF9Ca656af840dff83E8264EcF986CA/logo.svg

<svg xmlns="http://www.w3.org/2000/svg" width="32" height="32" viewBox="0 0 32 32">
  <g fill="none" fill-rule="evenodd">
    <path fill="#FFF" d="M32,16 C32,13.90592 31.58336,11.81184 30.78208,9.87712 C29.9808,7.9424 28.79456,6.16704 27.3136,4.6864 C25.83296,3.20544 24.0576,2.0192 22.12288,1.21792 C20.18816,0.41664 18.09408,0 16,0 C13.90592,0 11.81184,0.41664 9.87712,1.21792 C7.9424,2.0192 6.16704,3.20544 4.6864,4.6864 C3.20544,6.16704 2.0192,7.9424 1.21792,9.87712 C0.41664,11.81184 0,13.90592 0,16 C0,18.09408 0.41664,20.18816 1.21792,22.12288 C2.0192,24.0576 3.20544,25.83296 4.6864,27.3136 C6.16704,28.79456 7.9424,29.9808 9.87712,30.78208 C11.81184,31.58336 13.90592,32 16,32 C18.09408,32 20.18816,31.58336 22.12288,30.78208 C24.0576,29.9808 25.83296,28.79456 27.3136,27.3136 C28.79456,25.83296 29.9808,24.0576 30.78208,22.12288 C31.58336,20.18816 32,18.09408 32,16 Z"/>
    <path fill="#2A5ADA" d="M15.9998592,5.33333333 L17.9752066,6.45901371 L23.3582676,9.53713749 L25.3333333,10.6630967 L25.3333333,21.3192774 L23.3582676,22.4449577 L18.0239284,25.5264276 L16.048581,26.6487619 L14.0735153,25.5264276 L8.64173242,22.4449577 L6.66666667,21.3192774 L6.66666667,10.6630967 L8.64173242,9.53713749 L14.0247934,6.45901371 L15.9998592,5.33333333 Z M15.9998592,9.82992035 L10.6170798,12.9113902 L10.6170798,19.0709839 L15.9998592,22.1521749 L21.3829202,19.0709839 L21.3829202,12.9113902 L15.9998592,9.82992035 Z"/>
  </g>
</svg>

<svg viewBox="0 0 32 32"><g fill="none" fill-rule="evenodd"><path fill="#FFF" d="M32 16c0-2.094-.417-4.188-1.218-6.123a16.047 16.047 0 00-3.468-5.19 16.047 16.047 0 00-5.191-3.47A16.055 16.055 0 0016 0c-2.094 0-4.188.417-6.123 1.218a16.047 16.047 0 00-5.19 3.468 16.047 16.047 0 00-3.47 5.191A16.055 16.055 0 000 16c0 2.094.417 4.188 1.218 6.123a16.047 16.047 0 003.468 5.19 16.047 16.047 0 005.191 3.47A16.055 16.055 0 0016 32c2.094 0 4.188-.417 6.123-1.218a16.047 16.047 0 005.19-3.468 16.047 16.047 0 003.47-5.191A16.055 16.055 0 0032 16z"/><path fill="#2A5ADA" d="M16 5.333l1.975 1.126 5.383 3.078 1.975 1.126V21.32l-1.975 1.126-5.334 3.081-1.975 1.123-1.975-1.123-5.432-3.081-1.975-1.126V10.663l1.975-1.126 5.383-3.078L16 5.333zm0 4.497l-5.383 3.081v6.16L16 22.152l5.383-3.081v-6.16L16 9.83z"/></g></svg>
